X:1
T:Title
%%score { ( 1 4 5 ) | ( 2 3 ) }
L:1/8
Q:1/4=100
M:4/4
K:A
V:1 treble nm="Grand Piano"
V:4 treble 
V:5 treble 
V:2 bass 
V:3 bass 
V:1
 [A,CE]2 [G,DE]2 [A,E]2 .[A,CA]2 | [A,DF]2 [^A,EF]2 [B,DF]2 [B,FB]2 | z4 z2 .B2 | %3
w: E.~S.~Carter * * *|||
 [Fc]2 [FB]2 [^Ec]4 | c2 dc [^DB]2 F2 | B2 cB A2 E2 | F2 [EG]2 [EA]2 [Ec]2 | B4 z4 |] %8
w: |||||
V:2
 A,,2 B,,2 C,2 z G | D,2 C,2 B,,2 D,2 | E,2 D,2 C,2 [B,,G,][A,,A,] | [D,A,]2 [D,F,]2 [C,G,]4 | %4
 [F,^A,F]2 [F,A,E]2 [B,,B,]2 [=A,B,^D]2 | [G,B,E]2 [E,G,D]2 [F,A,C]2 [C,A,]2 | %6
 [D,A,D]2 [D,B,]2 [C,A,]2 [A,,A,]2 | [E,A,D]2 [E,G,]2 [A,,E,]4 |] %8
V:3
 z4 z2 A,,2 | x8 | x8 | x8 | x8 | x8 | x8 | x8 |] %8
V:4
 x8 | x8 | [B,EG]2 [B,EG]2 [A,EA]2 E-[Ec] | x8 | x8 | x8 | x8 | z2 z A [CA]4 |] %8
V:5
 x8 | x8 | x8 | x8 | x8 | x8 | x8 | z2 D2 z4 |] %8

